X: 32924
T: Praties They Grow Small, The
R: hornpipe
M: 4/4
K: Bminor
W: with slow march feel
F2A2|B3c B2A2|F4 d2d2|d4 c2B2|(c4 c4|c4) d2c2|
B3c B2A2|F4 F2A2|(B4 B4|B4)|:B2c2|
d3A d2 e2|f4 g2f2|e3c A2c2|e4 d2c2|
B3c B2A2|F4 d2d2|d4 e2d2|(c4 c4|c4) d2c2|
B3c B2A2|F2E2 F2A2|(B4 B4|B4):|

